!!!OTL: Lunan shange
!!!ARE: Asia, China,ˇYunnan
!! II, 57
!!!SCT: C1487
!!!YEM: Copyright 1995, estate of Helmut Schaffrath.
**kern
*ICvox
*Ivox
*M2/4
*k[]
*C:
{8cc
8cc
8a
8cc
=1
4.dd
8ee
=2
8.ee
16cc
8.dd
16ee}
=3
{8cc
8dd
4a
=4
4.g
8cc
=5
4a
8g
8a
=6
2d}
=7
{8d
8d
8d
8g
=8
8b
8g
4a}
=9
{8.cc
16dd
4a
=10
4.g
8cc
=11
4a
8g
8a
=12
2d}
==
!!!AGN: Shange. NannÅ qing
!!!AMT: simple duple
!!!AIN: vox
!!!EED: Helmut Schaffrath
!!!EEV: 1.0
*-
